X:265
T:Lark in the Morning, The
R:jig
D:Moving Hearts: The Storm.
Z:id:hn-jig-40
M:6/8
K:D
AFA AFA|BGB BdB|AFA Ade|fed BdB|
AFA AFA|BGB BdB|def afe|1 fdB BdB:|2 fdB BAB||
|:def afa|baf afe|def afe|fdB BAB|
def afa|baf a2f|~g3 fgf|edB BAB:|
|:d2f fef|fef fef|d2f fef|edB BAB|
d2f fef|fef fef|~g3 fgf|1 edB BAB:|2 edB BdB||
|:Add fdd|ede fdB|Add fdd|edB BAF|
Add fdd|ede fed|~g3 fgf|1 edB BAF:|2 edB BdB||
